X: 17424
T: Highland Cathedral
R: strathspey
M: 4/4
K: Dmajor
d6 ef|e2 d2 A2 d2|e6 f2|f8|f6 ga|g2 f2 e2 d2|e6 f2|A8|
B6 cd|d2 A2 c2 d2|a6 g2|f8|e6 fg|f2 d2 A2 d2|e6 d2|d8|
c6 A2|e6 ce|f6 c2|c6 B2|A4 (3A2B2c2|B8|c4 (3c2d2e2|B8|
c6 A2|e6 ce|f6 c2|c6 B2|A4 (3A2B2c2|B6 A2|A8|A8||
G3 A B2 AG|d6 a2|g2 f2 e2 B2|d4 g2 f2|
e4 G4|g6 fe|d6 Bd|e2 fg a4|
G3 A B2 AG|d6 a2|g2 f2 e2 B2|d4 g2 f2|
e4 g4|a3 g f d3|g8|g8|a8|a8||

